frontend/public/svg/hand gestures/2-scroll-left.svg

<svg width="132" height="146" viewBox="0 0 132 146" fill="none" xmlns="http://www.w3.org/2000/svg">
<g clip-path="url(#clip0)">
<path d="M128.798 68.5592C126.731 62.8655 121.518 59.9507 115.521 61.1295C114.101 61.4785 112.734 62.0146 111.456 62.7237C110.936 62.981 110.402 63.2488 109.857 63.491C108.796 61.203 107.012 58.2055 103.662 57.0628C101.536 56.4006 99.3613 55.909 97.1573 55.5926C96.2627 55.439 95.3399 55.2802 94.4191 55.0991V54.8451C94.425 54.3705 94.4315 53.8139 94.4105 53.2587C94.3042 50.4986 94.2051 47.7389 94.1132 44.9796C93.8789 38.2194 93.6367 31.2313 93.2357 24.3647C92.8248 17.3353 91.0133 11.5747 87.6968 6.75387C85.0485 2.90511 80.8217 1.79655 76.6658 3.86205C74.4329 4.89457 72.626 6.66883 71.5536 8.88303C70.7207 10.665 69.9908 12.5323 69.2853 14.3379C69.0516 14.9364 68.816 15.5357 68.5784 16.1356C68.4471 15.9216 68.3106 15.7057 68.1767 15.4897C67.6254 14.5596 67.0222 13.6612 66.3699 12.7987C63.8239 9.5584 60.4741 8.83183 56.6844 10.6985C55.4151 11.291 54.2919 12.1564 53.3956 13.233C52.4994 14.3096 51.8517 15.5707 51.4991 16.9264C50.9652 18.7835 50.6441 20.6952 50.5421 22.6248L50.4111 25.9124C50.1289 32.8801 49.8374 40.0847 49.8361 47.1777C49.8361 53.6374 50.0166 59.9763 50.2082 66.6919C50.2843 69.3382 50.3568 72.0102 50.4255 74.7084L50.155 74.4669C49.7467 74.0862 49.3175 73.7285 48.8692 73.3951C42.0846 68.5723 34.9398 66.9124 27.6341 68.4594C26.091 68.758 24.6452 69.4321 23.4246 70.4219C22.204 71.4116 21.246 72.6875 20.6355 74.1354C20.019 75.6456 19.7838 77.2852 19.951 78.9076C20.1181 80.5308 20.6823 82.0876 21.5937 83.4403C22.7583 85.1245 24.1511 86.638 25.7321 87.9389C30.9134 92.3573 35.1898 97.738 38.3246 103.783C42.2829 111.455 46.7335 119.492 52.3307 129.075C53.7904 131.574 56.19 133.66 57.8676 135.011C61.3291 137.8 65.4596 140.08 70.867 142.186C75.6675 144.077 80.7804 145.047 85.9392 145.046C91.7773 144.975 97.559 143.894 103.028 141.85C107.067 140.338 110.808 138.123 114.076 135.309C119.991 130.398 124.112 123.692 126.678 114.809C130.097 103.006 131.551 90.7224 130.983 78.4476C130.751 75.0609 130.014 71.728 128.798 68.5592ZM56.5588 82.6632C56.4065 73.7593 56.2099 64.866 56.055 58.1162C56.011 56.2089 55.94 54.3016 55.8691 52.3943C55.7293 48.6532 55.585 44.7808 55.6618 40.9806C55.7865 34.7979 56.2063 28.5134 56.6126 22.4364L56.744 20.514C56.9698 17.1135 58.1808 15.4018 60.7871 14.8183C62.8986 16.1966 64.2072 18.4695 64.7848 21.7643C65.6545 26.7134 66.2664 31.7044 66.6179 36.717C67.0524 42.9706 67.3832 49.3384 67.7028 55.4968C67.8892 59.083 68.075 62.6693 68.2817 66.2541C68.3533 67.4854 68.6335 68.2966 69.1153 68.6642C69.9967 69.3947 71.1158 69.7747 72.2591 69.7327C73.1124 69.6014 74.1205 68.2159 74.1835 67.341C74.4067 64.6383 74.4119 61.9219 74.1986 59.2182C73.0408 46.2608 73.9512 33.495 75.1641 19.347C75.441 17.3439 75.9878 15.3873 76.7885 13.5306C76.9303 13.1545 77.0714 12.7797 77.2079 12.4069C77.6129 11.5405 78.2095 10.7773 78.9525 10.1754C79.7847 9.42648 80.4725 9.10487 81.0009 9.22695C81.4905 9.33853 81.9276 9.85178 82.2985 10.7529L82.4494 11.1179C83.7037 14.16 85.0006 17.3052 85.5066 20.5035C86.3605 25.8001 86.8154 31.1534 86.8659 36.5181C86.9073 43.518 86.6756 50.6406 86.4511 57.5282C86.3842 59.6009 86.3185 61.6738 86.2542 63.747C86.2122 64.6325 86.1262 65.5153 85.995 66.3919C85.8794 67.2714 85.7593 68.1805 85.7324 69.0869C85.6878 70.5656 86.0645 71.6256 86.8534 72.2373C87.6424 72.849 88.7772 72.9547 90.2139 72.5412C91.1551 72.3023 92.0018 71.7851 92.6437 71.0565C93.2856 70.328 93.6925 69.4229 93.8113 68.4594C93.9839 67.4257 94.0738 66.3677 94.1677 65.3445C94.2241 64.7059 94.2799 64.0666 94.3554 63.43C94.6022 61.348 95.6983 60.3911 97.834 60.4521C99.3403 60.524 100.788 61.0634 101.974 61.9953C103.16 62.9273 104.025 64.2055 104.451 65.6523C104.731 66.8323 104.907 68.0348 104.976 69.2457C105.006 69.5798 105.035 69.9138 105.068 70.2466C105.095 70.6122 105.098 70.9784 105.077 71.344C105.006 72.0141 105.076 72.6921 105.282 73.3334C105.606 74.1308 106.443 75.5557 107.524 75.8386C108.272 76.0355 109.329 75.6666 110.666 74.7438C111.087 74.3907 111.409 73.9352 111.602 73.4213C111.716 73.1686 111.847 72.9251 111.996 72.6908C112.252 72.3121 112.501 71.9249 112.749 71.537C113.364 70.5059 114.074 69.5351 114.873 68.6379C116.143 67.3062 117.58 66.6748 118.925 66.854C120.255 67.0332 121.46 68.0111 122.319 69.6067C124.421 73.2828 125.43 77.4821 125.228 81.7115C124.695 89.5876 123.765 97.5575 122.936 104.41C122.214 110.372 119.794 115.866 117.522 120.454C114.008 127.551 107.992 132.37 99.1322 135.183C86.4518 139.209 74.0024 137.007 62.1312 128.636C60.8682 127.775 59.7653 126.699 58.872 125.458C56.8885 122.622 55.062 119.677 53.4011 116.641C50.6858 111.587 48.0292 106.345 45.5029 101.064C41.4993 92.6999 36.385 86.1162 29.8636 80.9357C28.759 80.0536 27.8283 78.9733 27.1194 77.7505C26.9202 77.4401 26.7897 77.0909 26.7364 76.726C26.6831 76.3611 26.7084 75.9889 26.8105 75.6345C26.97 75.2322 27.212 74.8679 27.5206 74.5647C27.8293 74.2621 28.1979 74.0265 28.6029 73.8742C29.8905 73.2986 31.286 73.0045 32.6963 73.0118C33.4609 73.015 34.2237 73.0886 34.9746 73.2323C40.7064 74.3021 44.5485 76.4339 47.0668 79.9401C47.9507 81.3289 48.6325 82.8365 49.0916 84.4176C49.2321 84.8245 49.3718 85.2301 49.5175 85.6285C50.0787 87.167 50.8639 88.5932 52.7915 88.6064H52.8198C54.5092 88.6064 55.7352 87.5562 56.1854 85.725C56.4411 84.7248 56.5665 83.695 56.5588 82.6626V82.6632Z" fill="black"/>
<path d="M3.94203 17.1344C6.60742 19.8024 9.37347 22.481 12.1622 25.0938C12.7698 25.708 13.5656 26.1008 14.4226 26.2096H14.4277C15.4717 26.2544 16.4928 25.8939 17.2771 25.2034C17.7812 24.6226 17.5887 23.0579 17.08 22.3576C16.466 21.5717 15.7703 20.8531 15.0046 20.214C14.6515 19.8976 14.2984 19.5812 13.9643 19.2511C13.5049 18.7956 12.9898 18.3802 12.493 17.9785C11.4746 17.2415 10.588 16.3377 9.87084 15.3052H10.4201C11.106 15.3091 11.6981 15.3131 12.2908 15.2986L17.7569 15.1674C24.1234 15.0197 30.7025 14.8661 37.174 14.6423C38.1291 14.5605 39.0679 14.3443 39.9627 14.0004C40.4084 13.854 40.8684 13.7031 41.3488 13.5738L41.7571 13.4642L41.5603 13.0907C41.2028 12.2916 40.6115 11.6193 39.8647 11.1625C39.1178 10.7056 38.2505 10.4855 37.3762 10.531C32.7904 10.3997 29.0596 10.3223 25.6361 10.2947C22.2514 10.2678 18.8889 10.2737 15.3276 10.2796C14.0753 10.2823 12.8013 10.284 11.5053 10.2849L12.4898 9.515C13.7703 8.51474 14.9707 7.57683 16.1599 6.62714C16.4343 6.40726 16.7111 6.18936 16.9874 5.9708C18.1413 5.09933 19.2375 4.15398 20.2691 3.14067C20.5107 2.77867 20.6476 2.35677 20.6639 1.92181C20.6803 1.48686 20.5755 1.05589 20.3617 0.676782C19.8451 0.0506357 18.4492 0.165492 18.0344 0.217342C17.5956 0.314208 17.1912 0.528349 16.8646 0.836924C16.7334 0.939313 16.6024 1.04236 16.4711 1.12899L3.00496 9.92389C1.28404 11.0469 0.877672 12.6326 1.86021 14.387C2.42663 15.3928 3.12692 16.3171 3.94203 17.1344Z" fill="black"/>
</g>
<defs>
<clipPath id="clip0">
<rect width="130.611" height="145.051" fill="white" transform="translate(0.79248 0.168701)"/>
</clipPath>
</defs>
</svg>

<svg xmlns="http://www.w3.org/2000/svg" width="132" height="146" fill="none" viewBox="0 0 132 146"><g fill="#000" clip-path="url(#a)"><path d="M128.798 68.56c-2.067-5.695-7.28-8.61-13.277-7.43a16.5 16.5 0 0 0-4.065 1.594c-.52.257-1.054.525-1.599.767-1.061-2.288-2.845-5.285-6.195-6.428a42 42 0 0 0-6.505-1.47 119 119 0 0 1-2.738-.494v-.254a32 32 0 0 0-.008-1.586q-.16-4.14-.298-8.28c-.234-6.76-.476-13.748-.877-20.614-.411-7.03-2.223-12.79-5.54-17.611-2.647-3.849-6.874-4.957-11.03-2.892a10.64 10.64 0 0 0-5.112 5.021c-.833 1.782-1.563 3.65-2.269 5.455q-.35.898-.707 1.798c-.13-.214-.267-.43-.401-.646a29 29 0 0 0-1.807-2.691c-2.546-3.24-5.896-3.967-9.686-2.1a9.52 9.52 0 0 0-5.185 6.227 25.5 25.5 0 0 0-.957 5.699l-.13 3.287c-.283 6.968-.575 14.173-.576 21.266 0 6.46.18 12.798.372 19.514q.114 3.969.218 8.016l-.271-.241a15 15 0 0 0-1.286-1.072c-6.784-4.823-13.93-6.483-21.235-4.936a9.57 9.57 0 0 0-6.998 5.676 9.93 9.93 0 0 0 .958 9.305 22 22 0 0 0 4.138 4.499 52.7 52.7 0 0 1 12.593 15.844c3.958 7.672 8.408 15.709 14.006 25.292 1.46 2.499 3.859 4.585 5.537 5.936 3.461 2.789 7.592 5.069 12.999 7.175a41.1 41.1 0 0 0 15.072 2.86 50.6 50.6 0 0 0 17.089-3.196 36.6 36.6 0 0 0 11.048-6.541c5.915-4.911 10.036-11.617 12.602-20.5a112 112 0 0 0 4.305-36.361 34.1 34.1 0 0 0-2.185-9.889m-72.24 14.103c-.151-8.904-.348-17.797-.503-24.547-.044-1.907-.115-3.814-.186-5.722-.14-3.74-.284-7.613-.207-11.413.124-6.183.544-12.468.95-18.545l.132-1.922c.226-3.4 1.437-5.112 4.043-5.696 2.112 1.379 3.42 3.652 3.998 6.946.87 4.95 1.481 9.94 1.833 14.953.434 6.254.765 12.621 1.085 18.78.186 3.586.372 7.172.579 10.757.071 1.231.352 2.043.833 2.41.882.73 2 1.11 3.144 1.069.853-.132 1.862-1.517 1.924-2.392.224-2.703.229-5.42.016-8.123-1.158-12.957-.248-25.723.965-39.871.277-2.003.824-3.96 1.624-5.816q.214-.565.42-1.124a6.3 6.3 0 0 1 1.745-2.232c.832-.749 1.52-1.07 2.048-.948.49.112.927.625 1.297 1.526l.151.365c1.255 3.042 2.552 6.187 3.058 9.385a107 107 0 0 1 1.359 16.015c.041 7-.19 14.123-.415 21.01q-.1 3.11-.197 6.219a26 26 0 0 1-.259 2.645c-.116.88-.236 1.788-.263 2.695-.044 1.479.332 2.539 1.121 3.15.79.612 1.924.718 3.36.304a4.82 4.82 0 0 0 3.598-4.082c.173-1.033.263-2.091.357-3.115.056-.638.112-1.277.187-1.914.247-2.082 1.343-3.039 3.479-2.978a7.26 7.26 0 0 1 6.617 5.2c.28 1.18.456 2.383.525 3.594q.044.502.092 1 .04.549.009 1.098a4.8 4.8 0 0 0 .205 1.99c.324.797 1.161 2.222 2.242 2.505.748.197 1.805-.172 3.142-1.095.421-.353.743-.809.936-1.323q.17-.379.394-.73.383-.57.753-1.154a19 19 0 0 1 2.124-2.9c1.27-1.33 2.707-1.962 4.052-1.783 1.33.18 2.535 1.157 3.394 2.753a22.25 22.25 0 0 1 2.909 12.105c-.533 7.876-1.463 15.846-2.292 22.698-.722 5.962-3.142 11.456-5.414 16.044-3.514 7.097-9.53 11.916-18.39 14.729-12.68 4.026-25.13 1.824-37-6.547a13.1 13.1 0 0 1-3.26-3.178 95 95 0 0 1-5.47-8.817 375 375 0 0 1-7.9-15.577C41.5 92.7 36.386 86.116 29.865 80.936a11.4 11.4 0 0 1-2.745-3.186 2.6 2.6 0 0 1-.308-2.115 3.1 3.1 0 0 1 1.792-1.76 9.9 9.9 0 0 1 4.093-.863c.765.003 1.528.077 2.279.22 5.731 1.07 9.573 3.202 12.092 6.708a17.4 17.4 0 0 1 2.025 4.478q.209.611.425 1.21c.562 1.539 1.347 2.965 3.274 2.978h.029c1.69 0 2.915-1.05 3.365-2.881.256-1 .381-2.03.374-3.062M3.942 17.134a348 348 0 0 0 8.22 7.96 3.86 3.86 0 0 0 2.26 1.116h.006a4.05 4.05 0 0 0 2.85-1.007c.503-.58.31-2.145-.198-2.845a14 14 0 0 0-2.075-2.144 29 29 0 0 1-1.04-.963c-.46-.455-.975-.87-1.472-1.273a11.2 11.2 0 0 1-2.622-2.673h.55c.685.004 1.277.008 1.87-.006l5.466-.132c6.366-.147 12.946-.3 19.417-.525A10.2 10.2 0 0 0 39.963 14c.445-.146.905-.297 1.386-.426l.408-.11-.197-.373a4.34 4.34 0 0 0-4.184-2.56 569 569 0 0 0-11.74-.236c-3.385-.027-6.747-.021-10.308-.015l-3.823.005.985-.77c1.28-1 2.48-1.938 3.67-2.888q.412-.33.827-.656a33.5 33.5 0 0 0 3.282-2.83 2.36 2.36 0 0 0 .093-2.464c-.517-.626-1.913-.512-2.328-.46a2.5 2.5 0 0 0-1.17.62c-.13.102-.262.205-.393.292L3.005 9.924C1.284 11.047.878 12.633 1.86 14.387a12.8 12.8 0 0 0 2.082 2.747"/></g><defs><clipPath id="a"><path fill="#fff" d="M.792.169h130.611v145.05H.793z"/></clipPath></defs></svg>
